Lila_HD/places/scalable/folder-templates-symbolic.svg

<?xml version="1.0" encoding="UTF-8" standalone="no"?>
<!-- Created with Inkscape (http://www.inkscape.org/) -->

<svg
   xmlns:dc="http://purl.org/dc/elements/1.1/"
   xmlns:cc="http://creativecommons.org/ns#"
   xmlns:rdf="http://www.w3.org/1999/02/22-rdf-syntax-ns#"
   xmlns:svg="http://www.w3.org/2000/svg"
   xmlns="http://www.w3.org/2000/svg"
   xmlns:sodipodi="http://sodipodi.sourceforge.net/DTD/sodipodi-0.dtd"
   xmlns:inkscape="http://www.inkscape.org/namespaces/inkscape"
   id="svg13094"
   height="16"
   width="16"
   version="1.1"
   inkscape:version="0.48.3.1 r9886"
   sodipodi:docname="folder-templates.svg">
  <defs
     id="defs3009" />
  <sodipodi:namedview
     pagecolor="#ffffff"
     bordercolor="#666666"
     borderopacity="1"
     objecttolerance="10"
     gridtolerance="10"
     guidetolerance="10"
     inkscape:pageopacity="0"
     inkscape:pageshadow="2"
     inkscape:window-width="1920"
     inkscape:window-height="1032"
     id="namedview3007"
     showgrid="false"
     inkscape:zoom="14.75"
     inkscape:cx="8"
     inkscape:cy="8"
     inkscape:window-x="-1"
     inkscape:window-y="25"
     inkscape:window-maximized="1"
     inkscape:current-layer="svg13094" />
  <metadata
     id="metadata13099">
    <rdf:RDF>
      <cc:Work
         rdf:about="">
        <dc:format>image/svg+xml</dc:format>
        <dc:type
           rdf:resource="http://purl.org/dc/dcmitype/StillImage" />
        <dc:title />
      </cc:Work>
    </rdf:RDF>
  </metadata>
  <path
     id="path3644"
     d="M 4,0 3.375,2.46875 C 2.544833,3.002338 2,3.939824 2,5 2,5.522754 2.139922,6.009536 2.375,6.4375 L 0,16 1,16 5,9 9,16 10,16 7.625,6.4375 C 7.860078,6.009536 8,5.522754 8,5 8,3.939824 7.455167,3.002338 6.625,2.46875 L 6,0 4,0 z m 7,0 0,16 5,0 0,-1 -3,0 0,-1 3,0 0,-2 -2,0 0,-1 2,0 0,-2 -3,0 0,-1 3,0 0,-2 -2,0 0,-1 2,0 0,-2 -3,0 0,-1 3,0 0,-2 -5,0 z M 4,4 6,4 6,6 4,6 4,4 z"
     style="fill:#999999;fill-opacity:0.9123711682"
     inkscape:connector-curvature="0" />
</svg>

<?xml version="1.0" encoding="UTF-8"?>
<!-- Created with Inkscape (http://www.inkscape.org/) -->
<svg version="1.1" viewBox="0 0 16 16" xmlns="http://www.w3.org/2000/svg" xmlns:cc="http://creativecommons.org/ns#" xmlns:dc="http://purl.org/dc/elements/1.1/" xmlns:rdf="http://www.w3.org/1999/02/22-rdf-syntax-ns#">
<metadata>
<rdf:RDF>
<cc:Work rdf:about="">
<dc:format>image/svg+xml</dc:format>
<dc:type rdf:resource="http://purl.org/dc/dcmitype/StillImage"/>
<dc:title/>
</cc:Work>
</rdf:RDF>
</metadata>
<path d="m4 0-0.625 2.4688c-0.83017 0.53359-1.375 1.4711-1.375 2.5312 0 0.52275 0.13992 1.0095 0.375 1.4375l-2.375 9.5625h1l4-7 4 7h1l-2.375-9.5625c0.23508-0.42796 0.375-0.91475 0.375-1.4375 0-1.0602-0.54483-1.9977-1.375-2.5312l-0.625-2.4688h-2zm7 0v16h5v-1h-3v-1h3v-2h-2v-1h2v-2h-3v-1h3v-2h-2v-1h2v-2h-3v-1h3v-2h-5zm-7 4h2v2h-2v-2z" fill="#999" fill-opacity=".91237"/>
</svg>
